(Generated with: DXF2GCODE, Version: Py3.6.2 PyQt5.9, Date: $Date: Mon Sep 25 13:57:11 2017 +0200 $)
(Created from file: C:/Users/Bob/Desktop/DXF's & G-code/1in square and circle.dxf)
(Output format description: G-CODE for LinuxCNC)
(Time: Sat Sep 15 07:43:50 2018)
G20 (Units in inches)
G90 (Absolute programming)
G64 (Default cutting) G17 (XY plane) G40 (Cancel radius comp.) G49 (Cancel length comp.)
G0 Z  0.250 

(*** LAYER: 0 ***)
T1 M6
S0

(* SHAPE Nr: 0 *)
G0 X  2.646 Y  2.646
M3 M8
G0 Z  0.380 
F0
G1 Z  0.000
F2
G2 X  3.354 Y  3.354 I  0.354 J  0.354
G2 X  2.646 Y  2.646 I -0.354 J -0.354
F0
G1 Z -0.130
F2
G2 X  3.354 Y  3.354 I  0.354 J  0.354
G2 X  2.646 Y  2.646 I -0.354 J -0.354
F0
G1 Z -0.260
F2
G2 X  3.354 Y  3.354 I  0.354 J  0.354
G2 X  2.646 Y  2.646 I -0.354 J -0.354
F0
G1 Z -0.390
F2
G2 X  3.354 Y  3.354 I  0.354 J  0.354
G2 X  2.646 Y  2.646 I -0.354 J -0.354
F0
G1 Z -0.520
F2
G2 X  3.354 Y  3.354 I  0.354 J  0.354
G2 X  2.646 Y  2.646 I -0.354 J -0.354
F0
G1 Z -0.650
F2
G2 X  3.354 Y  3.354 I  0.354 J  0.354
G2 X  2.646 Y  2.646 I -0.354 J -0.354
F0
G1 Z -0.780
F2
G2 X  3.354 Y  3.354 I  0.354 J  0.354
G2 X  2.646 Y  2.646 I -0.354 J -0.354
F0
G1 Z -0.910
F2
G2 X  3.354 Y  3.354 I  0.354 J  0.354
G2 X  2.646 Y  2.646 I -0.354 J -0.354
F0
G1 Z -1.040
F2
G2 X  3.354 Y  3.354 I  0.354 J  0.354
G2 X  2.646 Y  2.646 I -0.354 J -0.354
F0
G1 Z -1.130
F2
G2 X  3.354 Y  3.354 I  0.354 J  0.354
G2 X  2.646 Y  2.646 I -0.354 J -0.354
F0
G1 Z  0.380
G0 Z  0.250 
M9 M5

(* SHAPE Nr: 1 *)
G0 X  1.000 Y  1.000
M3 M8
G0 Z  0.380 
G1 Z  0.000
F2
G1 X  1.000 Y  2.000
G1 X  2.000 Y  2.000
G1 X  2.000 Y  1.000
G1 X  1.000 Y  1.000
F0
G1 Z -0.130
F2
G1 X  1.000 Y  2.000
G1 X  2.000 Y  2.000
G1 X  2.000 Y  1.000
G1 X  1.000 Y  1.000
F0
G1 Z -0.260
F2
G1 X  1.000 Y  2.000
G1 X  2.000 Y  2.000
G1 X  2.000 Y  1.000
G1 X  1.000 Y  1.000
F0
G1 Z -0.390
F2
G1 X  1.000 Y  2.000
G1 X  2.000 Y  2.000
G1 X  2.000 Y  1.000
G1 X  1.000 Y  1.000
F0
G1 Z -0.520
F2
G1 X  1.000 Y  2.000
G1 X  2.000 Y  2.000
G1 X  2.000 Y  1.000
G1 X  1.000 Y  1.000
F0
G1 Z -0.650
F2
G1 X  1.000 Y  2.000
G1 X  2.000 Y  2.000
G1 X  2.000 Y  1.000
G1 X  1.000 Y  1.000
F0
G1 Z -0.780
F2
G1 X  1.000 Y  2.000
G1 X  2.000 Y  2.000
G1 X  2.000 Y  1.000
G1 X  1.000 Y  1.000
F0
G1 Z -0.910
F2
G1 X  1.000 Y  2.000
G1 X  2.000 Y  2.000
G1 X  2.000 Y  1.000
G1 X  1.000 Y  1.000
F0
G1 Z -1.040
F2
G1 X  1.000 Y  2.000
G1 X  2.000 Y  2.000
G1 X  2.000 Y  1.000
G1 X  1.000 Y  1.000
F0
G1 Z -1.130
F2
G1 X  1.000 Y  2.000
G1 X  2.000 Y  2.000
G1 X  2.000 Y  1.000
G1 X  1.000 Y  1.000
F0
G1 Z  0.380
G0 Z  0.250 
M9 M5
G0 X  0.250 Y  0.250
M2 (Program end)